X: 29508
T: Nine Pint Coggie, The
R: reel
M: 4/4
K: Edorian
|:D|B,EEF (3EFE DB|AFED FAAd|AB{d}BA defe|1 dD~D2 FEE:|2 dBAF BEE||
|:D|Eeef ~e2dB|defe dBAd|Beed efab|afed ~e3f|
abaf edef|dBAF ABde|faef ~d2Be|1 dD~D2 FEE:|2 dBAF BEE||

